!!!!SEGMENT: pl-kk--kk-i-6--032_lilius-franciszek--qualis-est-dilecta-nostra.krn
!!!cenid: 16xx:1007
!!!COM: Lilius, Franciszek
!!!COM-rismID: pe30020509
!!!CDT: ~1600-1657
!!!CNT: Polish
!!!OTL: Qualis est dilecta nostra
!!!PDT:
!!!AGN: Sacred
!!!SMS-siglum: PL-Kk
!!!SMS-shelfmark: Kk.I.6
!!!SMS-shelfwork: 032 W
!!!SMS-variant:
!!!SMS-altvar:
!!!NIFC-rismSourceID: 1001135513
!!!NIFC-rismChildID: 1001136181
!!!NIFC-islandoraID: pl-kk:1634
!!!URL-pdf-islandora: https://repozytorium.nifc.pl/islandora/object/pl-kk%3A1634/datastream/PDF/view
!!!URL-scan: https://polish.musicsources.pl/pl/lokalizacje/galeria/rekopisy/6133 @EN{Scan on Polish Music Sources Website} @PL{Skany w portalu Dziedzictwo Muzyki Polskiej w otwartym dostępie}
!!!IIIF:
!!!ONB-nifc: UWAGA: C (skan 0044, s. 84-85), T (skan 0149-0151, s. 93-96), B (skan 0260-0261, s. 102-104) Następny utwór: Hortus conclusus
!!!AIN: 1 empty 1 tenor 1 vox
!!!key:
**kern	**text	**kern	**text	**kern	**text
*part3	*part3	*part2	*part2	*part1	*part1
*staff3	*staff3	*staff2	*staff2	*staff1	*staff1
*Iempty	*	*Itenor	*	*Ivox	*
*I"Baſsus.	*	*I"Tenor.	*	*I"Cantus.	*
*I'B	*	*I'T	*	*I'S	*
*clefF4	*	*clefC4	*	*clefC4	*
*k[]	*	*k[]	*	*k[]	*
*F:	*	*F:	*	*F:	*
*M2/1	*	*M2/1	*	*M2/1	*
*met(C)	*	*met(C|)	*	*met(C)	*
=1-	=1-	=1-	=1-	=1-	=1-
!LO:TX:a:B:t=Gradu \nale.	!	!LO:TX:a:B:t=Gradu \nale.	!	!LO:TX:a:B:t=Graduale.	!
!	!	!	!	!LO:TX:t=P:problem=oddech/cezura na różnej wysokości	!
00r	.	0r	.	00r	.
=2-	=2-	=2-	=2-	=2-	=2-
.	.	1r	.	.	.
.	.	2.F/	Qua-	.	.
.	.	4F/	-lis	.	.
=3-	=3-	=3-	=3-	=3-	=3-
0rD	.	2F/	eſt	00r	.
.	.	2F/	di-	.	.
.	.	2c\	-le-	.	.
.	.	2d\	-cta	.	.
=4-	=4-	=4-	=4-	=4-	=4-
2.C/	Qua-	2e\	No-	.	.
.	.	2c\	.	.	.
4C/	-lis	.	.	.	.
2C/	est	4e\	.	.	.
.	.	4d\	.	.	.
2C/	di-	1c\	.	.	.
=5-	=5-	=5-	=5-	=5-	=5-
2F\	-le-	.	.	0rA	.
*	*	*custos:c	*	*	*
2G\	-cta	2B\	.	.	.
!	!	!LO:LB:g=original	!	!	!
4A\	No-	2c\	-ſtra	.	.
4G\	.	.	.	.	.
4F\	.	2.A/	No-	.	.
*custos:D	*	*	*	*	*
4E\	.	.	.	.	.
!LO:LB:g=original	!	!	!	!	!
=6-	=6-	=6-	=6-	=6-	=6-
*lig	*	*	*	*lig	*
1D	.	.	.	1F	Qua-
.	.	4G/	.	.	.
.	.	1F	.	.	.
1C	.	.	.	1G	.
.	.	2E/	.	.	.
*Xlig	*	*	*	*Xlig	*
=7-	=7-	=7-	=7-	=7-	=7-
4FF/	-ſtra	4F,/	-ſtra	1F	-lis
2FF/	Qua-	2A/	qua-	.	.
4FF/	-lis	4A/	-lis	.	.
2FF/	est	2A/	eſt	1F	eſt
2FF/	di-	2A/	di-	.	.
=8-	=8-	=8-	=8-	=8-	=8-
2BB-X/	-le-	2B-X\	-le-	1F	di-
2D/	.	2A/	cta	.	.
*	*	*	*	*lig	*
1C	-cta	2.c\	no-	1G	-le-
.	.	4B-\	.	.	.
=9-	=9-	=9-	=9-	=9-	=9-
2.D/	No-	2A/	.	1F	.
.	.	2d\	.	.	.
4E\	.	.	.	.	.
*	*	*	*	*Xlig	*
*	*	*	*	*lig	*
2F\	.	4c\	.	1A	.
.	.	4B-\	.	.	.
2FF/	-ſtra	4A/	.	.	.
.	.	8G/L	.	.	.
*	*	*custos:E	*	*	*
.	.	8F/J	.	.	.
!	!	!LO:LB:g=original	!	!	!
=10-	=10-	=10-	=10-	=10-	=10-
*	*	*	*	*custos:E	*
2rAA	.	1E	.	1G	.
2.C/	qua-	.	.	.	.
*	*	*	*	*Xlig	*
!	!	!	!	!LO:LB:g=original	!
.	.	1C	-ſtra	1E	-cta
4C/	-lis	.	.	.	.
4C/	eſt	.	.	.	.
*custos:F	*	*	*	*	*
4C/	di-	.	.	.	.
!LO:LB:g=original	!	!	!	!	!
=11-	=11-	=11-	=11-	=11-	=11-
*	*	*	*ij	*lig	*
4F\	-le-	2rG	.	1F	.
4G\	-cta	.	.	.	.
2.A\	No-	2F/	qua-	.	.
.	.	2F/	-lis	1C	.
4G\	.	.	.	.	.
1F\	.	4F/	eſt	.	.
.	.	4F/	di-	.	.
*	*	*	*	*Xlig	*
=12-	=12-	=12-	=12-	=12-	=12-
.	.	2.c\	-le-	1C,	.
2E\	.	.	.	.	.
!	!	!LO:SIC:v:s=4B-	!	!	!
.	.	4Bny\	-cta	.	.
*	*	*	*	*lig	*
2F\	.	2A/	no-	1F	no-
2D/	.	2B\	.	.	.
=13-	=13-	=13-	=13-	=13-	=13-
1C	.	2c\	.	1G	.
.	.	2.G/	.	.	.
*	*	*	*	*Xlig	*
2.AA/	.	.	.	1A	.
.	.	4F/	.	.	.
.	.	1F/	.	.	.
4BB-X/	.	.	.	.	.
=14-	=14-	=14-	=14-	=14-	=14-
*	*	*	*	*lig	*
1C	.	.	.	1G	-ſtra
.	.	2E/	-ſtra	.	.
*	*	*	*Xij	*	*
2FF/	-ſtra	2F/	Cha-	1F	.
2.D/	Cha-	2.F/	-riſ-	.	.
*	*	*	*	*Xlig	*
=15-	=15-	=15-	=15-	=15-	=15-
*	*	*	*	*lig	*
.	.	.	.	1A	cha-
!LO:SIC:v:s=8C#	!	!	!	!	!
8C/L	.	8E/L	.	.	.
8BBny/J	.	8D/J	.	.	.
*	*	*custos:A	*	*	*
!LO:TX:b:t=P:problem=# below	!	!	!	!	!
2C#X/	-riſ-	2E/	.	.	.
!	!	!LO:LB:g=original	!	!	!
*	*	*lig	*	*	*
4D\	.	1A	.	1F	.
4E\	.	.	.	.	.
4F\	.	.	.	.	.
*custos:E	*	*	*	*	*
4D\	.	.	.	.	.
!	!	!	!	!	!
*	*	*	*	*Xlig	*
!LO:LB:g=original	!	!	!	!	!
=16-	=16-	=16-	=16-	=16-	=16-
*	*	*col	*	*lig	*
2.E\	.	2.G/	.	1G	-riſ-
*	*	*Xlig	*	*	*
4E\	-ſi-	4G/	-[ſi]-	.	.
*	*	*Xcol	*	*	*
*	*	*lig	*	*	*
1D	-mi	1F	-mi	1A	.
*	*	*	*	*Xlig	*
=17-	=17-	=17-	=17-	=17-	=17-
*	*	*	*	*lig	*
2r	.	1A	.	1c	.
2.A\	Ca-	.	.	.	.
*	*	*Xlig	*	*	*
.	.	0rG	.	1d	.
!LO:TX:t=P:problem=# above	!	!	!	!	!
8G#X\L	.	.	.	.	.
!LO:TX:t=P:problem=# above	!	!	!	!	!
8F#X\J	.	.	.	.	.
2G#\	.	.	.	.	.
*	*	*	*	*Xlig	*
=18-	=18-	=18-	=18-	=18-	=18-
2A\	.	.	.	1c	-ſi-
2.Fny\	-riſ-	.	.	.	.
.	.	1rA	.	1c	-mi
8E\L	.	.	.	.	.
8D\J	.	.	.	.	.
2E\	.	.	.	.	.
=19-	=19-	=19-	=19-	=19-	=19-
*	*	*	*	*lig	*
2F\	.	2r	.	1A	.
2D/	.	2.d\	Cha-	.	.
2.E\	.	.	.	1G	.
!	!	!LO:SIC:v:s=8c#	!	!	!
.	.	8c\L	.	.	.
.	.	8B\J	.	.	.
!	!	!LO:TX:t=P:problem=# above	!	!	!
.	.	2c#X\	-riſ-	.	.
4E\	-ſi-	.	.	.	.
*	*	*	*	*Xlig	*
=20-	=20-	=20-	=20-	=20-	=20-
*custos:AA	*	*	*	*custos:c	*
1D	-mi	4d\	.	1A	.
.	.	4e\	.	.	.
.	.	4f\	.	.	.
.	.	4d\	.	.	.
!LO:LB:g=original	!	!	!	!LO:LB:g=original	!
*	*	*	*	*lig	*
2rC	.	2.e\	.	1c	qua-
2.AA/	Qua-	.	.	.	.
.	.	4d\	-ſi-	.	.
=21-	=21-	=21-	=21-	=21-	=21-
*	*	*custos:c	*	*	*
.	.	0cny	-mi	1A	.
4AA/	-lis	.	.	.	.
2AA/	est	.	.	.	.
*	*	*	*	*Xlig	*
4Cny/	Ma-	.	.	1G	.
4D/	.	.	.	.	.
4E\	.	.	.	.	.
4C/	.	.	.	.	.
!	!	!LO:PB:g=original	!	!	!
=22-	=22-	=22-	=22-	=22-	=22-
*	*	*	*	*lig	*
1.F	.	2r	.	1A	-lis
.	.	2.c\	qua-	.	.
.	.	.	.	1c	.
.	.	4c\	-lis	.	.
2E\	-ter	2c\	eſt	.	.
*	*	*	*	*Xlig	*
=23-	=23-	=23-	=23-	=23-	=23-
1.C	-di-	4e\	Ma-	1c	eſt
.	.	4f\	.	.	.
.	.	4g\	.	.	.
.	.	4e\	.	.	.
*	*	*	*	*lig	*
.	.	1f	.	1d	Ma-
2BB/	.	.	.	.	.
=24-	=24-	=24-	=24-	=24-	=24-
2C/	-cta	2e,\	-ter	1c	.
2.F\	qua-	2.A/	qua-	.	.
*	*	*	*	*Xlig	*
*	*	*	*	*lig	*
.	.	.	.	1A	.
4F\	-lis	4A/	-lis	.	.
2F\	eſt	2A/	eſt	.	.
=25-	=25-	=25-	=25-	=25-	=25-
2.A\	Ma-	4F/	Ma-	1c	.
.	.	4G/	.	.	.
.	.	4A/	.	.	.
8Gny\L	.	4B\	.	.	.
8F\J	.	.	.	.	.
*	*	*	*	*Xlig	*
2E\	.	4.c\	.	1c	-ter
.	.	8d\	.	.	.
*custos:F	*	*	*	*	*
2E\	-ter	2.e\	.	.	.
!LO:LB:g=original	!	!	!	!	!
=26-	=26-	=26-	=26-	=26-	=26-
*	*	*	*	*lig	*
2F\	.	.	.	1A	di-
.	.	4d\	-ter	.	.
2D/	di-	1d	di-	.	.
1E	.	.	.	1G	.
*	*	*custos:d	*	*	*
!	!	!LO:TX:t=P:problem=# above	!	!	!
.	.	2c#X\	.	.	.
!	!	!	!	!	!
*	*	*	*	*Xlig	*
!	!	!LO:LB:g=original	!	!	!
=27-	=27-	=27-	=27-	=27-	=27-
!LO:TX:b:t=P:tekst:problem= di poprawione na cta	!	!	!	!	!
1D	-cta	1d	.	1A	-cta
*lig	*	*	*	*lig	*
1C	Do-	1e	-cta	1c	Do-
=28-	=28-	=28-	=28-	=28-	=28-
*col	*	*	*	*	*
2.G\	.	4B\	Do-	1d	.
.	.	4cny\	.	.	.
.	.	2.d\	.	.	.
*Xlig	*	*	*	*Xlig	*
4F\	.	.	.	.	.
*Xcol	*	*	*	*	*
2E\	.	.	.	1e	.
.	.	4c\	.	.	.
2C/	.	1c\	.	.	.
=29-	=29-	=29-	=29-	=29-	=29-
2.G\	.	.	.	1d	-mi-
.	.	2B\	-mi-	.	.
4G\	-mi-	.	.	.	.
2C/	-ni	1c	-ni	1c,	-ni
2.F\	qua-	.	.	.	.
=30-	=30-	=30-	=30-	=30-	=30-
.	.	1re	.	1c	qua-
4F\	-lis	.	.	.	.
2F\	et	.	.	.	.
*	*	*	*	*custos:A	*
2E\	quan-	2e\	qua-	1c	-lis
*custos:D	*	*	*	*	*
2C/	-ta	4e\	-lis	.	.
.	.	4e\	et	.	.
!LO:PB:g=original	!	!	!	!LO:LB:g=original	!
=31-	=31-	=31-	=31-	=31-	=31-
!	!	!	!	!LO:TX:b:t=P:tekst:problem= eſt poprawione na et	!
2D/	ſit	2d\	quan-	1A	et
2.F\	ſo-	2A/	-ta	.	.
*	*	*	*	*lig	*
.	.	2F/	Sit	1c	quan-
4F\	-ror	.	.	.	.
2E\	et	4G/	So-	.	.
.	.	4G/	-ror	.	.
=32-	=32-	=32-	=32-	=32-	=32-
4D/	ſpon-	2A/	et	1d	.
4E\	.	.	.	.	.
4F\	.	1A	Spon-	.	.
4G\	.	.	.	.	.
*	*	*	*	*Xlig	*
2A\	.	.	.	1c	.
*	*	*custos:c	*	*	*
2E\	-ſa	2G/	-sa	.	.
!	!	!LO:LB:g=original	!	!	!
=33-	=33-	=33-	=33-	=33-	=33-
*lig	*	*	*	*	*
1F	Chri-	2r	.	1A	-ta
.	.	2.c\	qua-	.	.
1C	.	.	.	1G	Sit
.	.	4c\	-lis	.	.
.	.	2c\	et	.	.
*Xlig	*	*	*	*	*
=34-	=34-	=34-	=34-	=34-	=34-
4FF/	-ſti	2A/	quan-	1c	-ſo-
4.F\	qua-	.	.	.	.
.	.	2F/	-ta	.	.
8F\	-lis	.	.	.	.
4F\	et	.	.	.	.
2E\	quan-	2G/	Sit	1c	-ror
2C/	-ta	1A\	-ſo-	.	.
=35-	=35-	=35-	=35-	=35-	=35-
1D	Sit	.	.	1F	et
.	.	2B\	-ror	.	.
*	*	*	*	*lig	*
2.C/	-ſo-	2c\	et	1G	-ſpon-
.	.	1c\	-ſpon-	.	.
*custos:AA	*	*	*	*	*
4BB/	.	.	.	.	.
!LO:LB:g=original	!	!	!	!	!
=36-	=36-	=36-	=36-	=36-	=36-
2AA/	.	.	.	1A	.
2FF/	-ror	2c\	-sa	.	.
*	*	*	*	*Xlig	*
2.C/	et	2c\	Chri-	1G	-ſa
.	.	2G/	.	.	.
4BB/	.	.	.	.	.
=37-	=37-	=37-	=37-	=37-	=37-
1AA	-ſpon-	4A/	.	1c	Chri-
.	.	4B\	.	.	.
.	.	2c\	.	.	.
1BB-X	-sa	1.B-X	.	1d	.
=38-	=38-	=38-	=38-	=38-	=38-
0C	Chri-	.	.	0c	.
*	*	*custos:G	*	*	*
.	.	2A/	.	.	.
!	!	!LO:LB:g=original	!	!	!
.	.	1G	.	.	.
=39-	=39-	=39-	=39-	=39-	=39-
*	*	*	*	*lig	*
1FF	-ſti	2F,/	-ſti	1A	.
.	.	4F/	-ſpon-	.	.
.	.	4E/	.	.	.
2BB-X/	-ſpon-	4D/	-sa	1F	.
.	.	4E/	.	.	.
2D/	-sa	1F/	Chri-	.	.
*	*	*	*	*Xlig	*
=40-	=40-	=40-	=40-	=40-	=40-
0C	Chri-	.	.	0G	.
.	.	4E/	.	.	.
.	.	4D/	.	.	.
.	.	1E	.	.	.
=41-	=41-	=41-	=41-	=41-	=41-
!	!	!LO:N:vis=1	!	!	!
!	!	!LO:TX:a:t=P:problem=brak kreski taktowej	!	!LO:TX:a:t=P:problem=brak kreski taktowej	!
0FF;	-ſti.	0F;	-ſti	0Fl;;	-ſti.
!LO:LB:g=original	!	!LO:LB:g=original	!	!LO:LB:g=original	!
=42||	=42||	=42||	=42||	=42||	=42||
*M2/1	*	*M2/1	*	*M2/1	*
*met(c|)	*	*met(C)	*	*met(C)	*
0rD	.	1F	Di-	00r	.
.	.	1A	-le-	.	.
=43-	=43-	=43-	=43-	=43-	=43-
1C	Di-	2G/	-cta	.	.
.	.	1c	No-	.	.
1D	-le-	.	.	.	.
.	.	2B\	.	.	.
=44-	=44-	=44-	=44-	=44-	=44-
2C/	-cta	2.c\	.	00r	.
1F	No-	.	.	.	.
!	!	!LO:SIC:v:s=4B-	!	!	!
.	.	4B\	.	.	.
.	.	2A/	.	.	.
2E\	.	2G/	.	.	.
=45-	=45-	=45-	=45-	=45-	=45-
2.D/	.	4F/	.	.	.
.	.	4E/	.	.	.
.	.	4F/	.	.	.
4E\	.	4G/	.	.	.
2F\	.	2A/	.	.	.
2D/	.	4G/	.	.	.
.	.	4F/	.	.	.
=46-	=46-	=46-	=46-	=46-	=46-
1C	-ſtra	2G/	.	1rA	.
.	.	2c\	.	.	.
1D	di-	2A/	-ſtra	1F	Di-
.	.	1A\	di-	.	.
=47-	=47-	=47-	=47-	=47-	=47-
*	*	*	*	*lig	*
1F	-le-	.	.	1A	-le-
.	.	1c	-le-	.	.
2.E\	cta	.	.	1G	.
*	*	*custos:A	*	*	*
!	!	!LO:SIC:v:s=2B-	!	!	!
.	.	2B\	.	.	.
4D/	.	.	.	.	.
!	!	!	!	!	!
*	*	*	*	*Xlig	*
!	!	!LO:LB:g=original	!	!	!
=48-	=48-	=48-	=48-	=48-	=48-
*	*	*	*	*lig	*
2C/	.	2A/	.	1c	.
2.C/	No-	2G/	-cta	.	.
.	.	2.G/	No-	1d	.
8BB/L	.	.	.	.	.
8AA/J	.	.	.	.	.
*custos:C	*	*	*	*	*
2BB/	.	.	.	.	.
.	.	4F/	.	.	.
!	!	!	!	!	!
*	*	*	*	*Xlig	*
!LO:LB:g=original	!	!	!	!	!
=49-	=49-	=49-	=49-	=49-	=49-
*	*	*	*	*lig	*
2C,/	-ſtra	4E/	.	1c	.
.	.	4F/	.	.	.
2C/	di-	4G/	.	.	.
.	.	4E/	.	.	.
1D	-le-	4F/	.	1A	.
.	.	4G/	.	.	.
.	.	4A/	.	.	.
.	.	4F/	.	.	.
*	*	*	*	*Xlig	*
=50-	=50-	=50-	=50-	=50-	=50-
1C	-cat	2G,/	-ſtra	1c	.
*	*	*	*ij	*	*
.	.	2G/	di-	.	.
*	*	*	*	*lig	*
1F	No-	1A	-le-	1c	-cta
=51-	=51-	=51-	=51-	=51-	=51-
1C	-ſtra	2G/	-cta	1e	.
.	.	1c	No-	.	.
*	*	*	*	*Xlig	*
2rAA	.	.	.	1d,	.
*	*ij	*	*	*	*
2GG/	di-	2B\	.	.	.
=52-	=52-	=52-	=52-	=52-	=52-
*	*	*	*	*lig	*
1AA	-le-	4A\	.	1c	No-
.	.	4B\	.	.	.
.	.	4c\	.	.	.
.	.	4A\	.	.	.
*	*	*custos:c	*	*	*
2GG/	-cta	1d	.	1B	.
1G\	No	.	.	.	.
*	*	*	*	*Xlig	*
!	!	!LO:PB:g=original	!	!	!
=53-	=53-	=53-	=53-	=53-	=53-
*	*	*	*	*lig	*
.	.	2c\	.	1A	.
2F\	.	2A/	.	.	.
1E	.	4B\	.	1G	.
.	.	4A/	.	.	.
.	.	1G/	.	.	.
*	*	*	*	*Xlig	*
=54-	=54-	=54-	=54-	=54-	=54-
1D	.	.	.	1A	.
!	!	!LO:TX:b:t=P:problem=# below	!	!	!
.	.	2F#X/	.	.	.
2GG/	-ſtra	1G	-ſtra	1G,	-ſtra
*	*Xij	*	*Xij	*	*
2.C/	Can-	.	.	.	.
=55-	=55-	=55-	=55-	=55-	=55-
*	*	*	*	*lig	*
.	.	2r	.	1c	Can-
4D/	.	.	.	.	.
4E\	.	1c	Can-	.	.
4C/	.	.	.	.	.
*	*	*	*	*custos:c	*
2F\	.	.	.	1d	.
*custos:A	*	*	*	*	*
2G\	.	2B\	.	.	.
!	!	!	!	!	!
*	*	*	*	*Xlig	*
!LO:LB:g=original	!	!	!	!LO:LB:g=original	!
=56-	=56-	=56-	=56-	=56-	=56-
2A\	.	2c\	.	1c	-di-
2F\	.	2A/	.	.	.
2.C/	.	2.G/	.	1c,	-da
4C/	-di-	4G/	-di-	.	.
=57-	=57-	=57-	=57-	=57-	=57-
2F,\	-da	2A,/	-da	1c	im-
2F\	im-	2A/	im-	.	.
2F\	-ma-	2A/	-ma-	1c	-ma-
2E\	-cu-	2G/	-cu-	.	.
=58-	=58-	=58-	=58-	=58-	=58-
1D	-la-	1Fny	-la-	1d	-cu-
*	*	*	*	*lig	*
2C,/	-ta	2E,/	-ta	1e	-la-
*	*	*custos:e	*	*	*
2c\	im-	2e\	im-	.	.
!	!	!LO:LB:g=original	!	!	!
=59-	=59-	=59-	=59-	=59-	=59-
2.c\	-ma-	2.e\	-ma-	1c	.
4B\	-cu-	4d\	-cu-	.	.
*	*	*	*	*Xlig	*
1A	-la-	4c\	-la-	(<1e	.
.	.	4d\	.	.	.
.	.	4e\	.	.	.
.	.	4c\	.	.	.
=60-	=60-	=60-	=60-	=60-	=60-
2G,\	-ta	1.d	.	1g)	.
2G\	im-	.	.	.	.
2G\	-ma-	.	.	1d	.
*custos:G	*	*	*	*	*
!LO:TX:t=P:problem=# above	!	!	!	!	!
2F#X\	-cu-	2A/	-ta	.	.
!LO:LB:g=original	!	!	!	!	!
=61-	=61-	=61-	=61-	=61-	=61-
*	*	*	*	*lig	*
2.G\	la-	0r	.	1B	.
4Fny\	.	.	.	.	.
4E\	.	.	.	1c	.
4D/	.	.	.	.	.
2C/	.	.	.	.	.
*	*	*	*	*Xlig	*
=62-	=62-	=62-	=62-	=62-	=62-
*lig	*	*	*ij	*lig	*
1D	.	2r	.	1A	.
.	.	2d\	im-	.	.
*col	*	*	*	*	*
2.E\	.	2c\	-ma-	1G	.
.	.	2B\	-cu-	.	.
!	!	!LO:TX:t=P:problem=usunięta ligatura	!	!	!
*Xlig	*	*	*	*Xlig	*
4D/	.	.	.	.	.
*Xcol	*	*	*	*	*
=63-	=63-	=63-	=63-	=63-	=63-
*	*	*lig	*	*lig	*
4C/	.	1E	-la-	1c	.
4BB/	.	.	.	.	.
2AA/	.	.	.	.	.
1GG	.	1.G	.	1d	.
*	*	*Xlig	*	*Xlig	*
=64-	=64-	=64-	=64-	=64-	=64-
2.AA/	.	.	.	0c	.
.	.	1F	.	.	.
4BB-X/	.	.	.	.	.
1C	-ta	.	.	.	.
.	.	2E/	.	.	.
=65-	=65-	=65-	=65-	=65-	=65-
*	*	*	*	*custos:A	*
1FF	.	1F	-ta	1c	-ta
*	*	*	*Xij	*	*
!	!	!	!	!LO:PB:g=original	!
=66-	=66-	=66-	=66-	=66-	=66-
*M3/1	*	*M3/1	*	*	*
*	*	*	*	*lig	*
!	!	!LO:N:vis=00	!	!LO:N:vis=1	!
!	!	!	!	!LO:TX:t=P:problem=brak zmiany metrum	!
1F	Qua-	00.r	.	0.A	Qua-
1D	-si	.	.	.	.
*custos:E	*	*	*	*	*
1F	au-	.	.	.	.
!LO:PB:g=original	!	!	!	!	!
=67-	=67-	=67-	=67-	=67-	=67-
!	!	!	!	!LO:N:vis=1	!
1E	-ro-	.	.	0.c	.
2A\	.	.	.	.	.
2G\	.	.	.	.	.
2F\	.	.	.	.	.
2E\	.	.	.	.	.
*	*	*	*	*Xlig	*
=68-	=68-	=68-	=68-	=68-	=68-
!	!	!	!	!	!
*	*	*	*	*lig	*
*	*	*custos:c	*	*	*
!LO:N:vis=0	!	!LO:N:vis=0	!	!LO:N:vis=1	!
0.D	.	0.r	.	0.d	.
!	!	!LO:LB:g=original	!	!	!
=69-	=69-	=69-	=69-	=69-	=69-
!	!	!	!	!LO:N:vis=1	!
0.C	-ra	1c	Qua-	0.e	.
.	.	1G	-si	.	.
.	.	1c	au-	.	.
*	*	*	*	*Xlig	*
=70-	=70-	=70-	=70-	=70-	=70-
*	*	*	*	*lig	*
!LO:N:vis=00	!	!	!	!LO:N:vis=1	!
00.r	.	1A	-ro-	0.c	.
.	.	2c\	.	.	.
.	.	2B\	.	.	.
.	.	2A/	.	.	.
.	.	2G/	.	.	.
=71-	=71-	=71-	=71-	=71-	=71-
!	!	!	!	!LO:N:vis=1	!
.	.	2F/	.	0.d	.
.	.	2E/	.	.	.
.	.	2D/	.	.	.
.	.	2E/	.	.	.
.	.	2F/	.	.	.
.	.	2G/	.	.	.
*	*	*	*	*Xlig	*
=72-	=72-	=72-	=72-	=72-	=72-
!	!	!	!	!LO:N:vis=1	!
1C	qua-	0A	.	0.c	.
1AA	-ſi	.	.	.	.
1C	au-	1G	.	.	.
=73-	=73-	=73-	=73-	=73-	=73-
!	!	!	!	!LO:N:vis=1	!
1.FF	-ro-	0.c	-ra	0.A	.
2GG/	.	.	.	.	.
2AA/	.	.	.	.	.
2BBny/	.	.	.	.	.
=74-	=74-	=74-	=74-	=74-	=74-
!	!	!	!	!LO:N:vis=1	!
2C/	.	1c	qua-	0.G,	-ſi
2BB/	.	.	.	.	.
2C/	.	1G	-si	.	.
2D/	.	.	.	.	.
*	*	*custos:A	*	*	*
2E\	.	1c	au-	.	.
*custos:D	*	*	*	*	*
2C/	.	.	.	.	.
!LO:LB:g=original	!	!LO:LB:g=original	!	!	!
=75-	=75-	=75-	=75-	=75-	=75-
!LO:N:vis=0	!	!	!	!LO:N:vis=1	!
0.D	.	1A	-ro-	0.F	au-
.	.	2F/	.	.	.
.	.	2G/	.	.	.
.	.	2A/	.	.	.
.	.	2B\	.	.	.
=76-	=76-	=76-	=76-	=76-	=76-
*	*	*	*	*lig	*
!	!	!	!	!LO:N:vis=1	!
0C	-ra	2c\	.	0.G	-ro-
.	.	2d\	.	.	.
.	.	2e\	.	.	.
.	.	2d\	.	.	.
1C	Con-	1c	.	.	.
=77-	=77-	=77-	=77-	=77-	=77-
!	!	!	!	!LO:N:vis=1	!
1.F	-ſur-	2c,\	-ra	0.A	.
.	.	2c\	Con-	.	.
.	.	1.f	-ſur-	.	.
2E\	.	.	.	.	.
2D/	.	.	.	.	.
2E\	.	2e\	.	.	.
*	*	*	*	*Xlig	*
=78-	=78-	=78-	=78-	=78-	=78-
!	!	!	!	!LO:N:vis=1	!
2F\	.	0d	.	0.A,	-ra
2G\	.	.	.	.	.
0A	.	.	.	.	.
!	!	!LO:TX:b:t=P:problem=# below	!	!	!
.	.	1c#X	.	.	.
=79-	=79-	=79-	=79-	=79-	=79-
*	*	*	*	*lig	*
!	!	!	!	!LO:N:vis=1	!
0.D	-gens	0.d	-gens	0.A	Con-
=80-	=80-	=80-	=80-	=80-	=80-
!	!	!	!	!LO:N:vis=1	!
1C	qua-	1e	qua-	0.c	.
1AA	-ſi	1cny	-si	.	.
1C	au-	1e	au-	.	.
*	*	*	*	*Xlig	*
!	!	!LO:LB:g=original	!	!	!
=81-	=81-	=81-	=81-	=81-	=81-
*	*	*	*	*lig	*
!	!	!	!	!LO:N:vis=1	!
1.GG	-ro	2d\	-ro-	0.B	.
.	.	2c\	.	.	.
.	.	2B\	.	.	.
2AA/	.	2c\	.	.	.
2BB/	.	2d\	.	.	.
*custos:D	*	*	*	*	*
2C/	.	2e\	.	.	.
!LO:LB:g=original	!	!	!	!	!
=82-	=82-	=82-	=82-	=82-	=82-
!	!	!	!	!LO:N:vis=1	!
2D/	.	1d	.	0.A	.
2E\	.	.	.	.	.
1.F	.	1d,	-ra	.	.
.	.	1d	Con-	.	.
2G\	.	.	.	.	.
*	*	*	*	*Xlig	*
=83-	=83-	=83-	=83-	=83-	=83-
*	*	*	*	*lig	*
!	!	!	!	!LO:N:vis=1	!
2A\	.	2c\	-ſur-	0.c	.
2B\	.	2B\	.	.	.
2c\	.	2A/	.	.	.
2B\	.	2B/	.	.	.
*	*	*col	*	*	*
1A	.	0c	.	.	.
=84-	=84-	=84-	=84-	=84-	=84-
*	*	*	*	*custos:c	*
!	!	!	!	!LO:N:vis=1	!
0.G	.	.	.	0.d	.
.	.	0B	.	.	.
*	*	*Xcol	*	*Xlig	*
!	!	!	!	!LO:LB:g=original	!
=85-	=85-	=85-	=85-	=85-	=85-
*	*	*	*	*lig	*
!	!	!	!	!LO:N:vis=1	!
0.C	.	0.c	-gens	0.c	.
=86-	=86-	=86-	=86-	=86-	=86-
!	!	!	!	!LO:N:vis=1	!
1F	.	1c	qua-	0.A	.
1D	.	1d	-ſi	.	.
*	*	*custos:c	*	*	*
1F	.	1c	au-	.	.
!	!	!	!	!	!
*	*	*	*	*Xlig	*
!	!	!LO:LB:g=original	!	!	!
=87-	=87-	=87-	=87-	=87-	=87-
*	*	*	*	*lig	*
!	!	!	!	!LO:N:vis=1	!
0C	.	0c	-ro-	0.G	.
1C	.	1c,	-ra	.	.
=88-	=88-	=88-	=88-	=88-	=88-
!	!	!	!	!LO:N:vis=1	!
1D	.	1A	qua-	0.F	.
1D	.	1A	-si	.	.
*custos:C	*	*	*	*	*
1D	.	1B	au-	.	.
!	!	!	!	!	!
*	*	*	*	*Xlig	*
!LO:LB:g=original	!	!	!	!	!
=89-	=89-	=89-	=89-	=89-	=89-
!	!	!	!	!LO:N:vis=1	!
1C	.	1c	-ro-	0.G	.
1C	.	1c	-ra	.	.
1C	.	1c	Con-	.	.
=90-	=90-	=90-	=90-	=90-	=90-
!	!	!LO:N:vis=00	!	!LO:N:vis=1	!
1.FF	.	00.c	-ſur-	0.A	-ſur-
2GG/	.	.	.	.	.
2AA/	.	.	.	.	.
2BB-X/	.	.	.	.	.
=91-	=91-	=91-	=91-	=91-	=91-
!LO:N:vis=0	!	!	!	!LO:N:vis=1	!
0.C	.	.	.	0.G	.
=92-	=92-	=92-	=92-	=92-	=92-
*M2/1	*	*M2/1	*	*	*
*met(C|)	*	*met(C|)	*	*	*
!	!	!	!	!LO:TX:t=P:problem=brak zmiany metrum	!
1FF	.	1A	gens	1F	.
1C	.	2r	.	1G	.
.	.	2c\	Con-	.	.
=93-	=93-	=93-	=93-	=93-	=93-
2.AA/	.	0.c	-ſur-	1A	.
4BB-X/	.	.	.	.	.
0C	.	.	.	0G	.
=94-	=94-	=94-	=94-	=94-	=94-
.	.	.	.	.	.
*	*	*custos:c	*	*	*
1FF	.	2A/	gens	00.Fl	-gens.
!	!	!LO:PB:g=original	!	!	!
.	.	4c\	Con-	.	.
!	!	!LO:SIC:v:s=4B-	!	!	!
.	.	4B\	.	.	.
=95-	=95-	=95-	=95-	=95-	=95-
4F\	.	4A/	.	.	.
4E\	.	4G/	.	.	.
4D/	.	2A/	.	.	.
4C/	.	.	.	.	.
1.BB-X	.	4B-X\	-ſur-	.	.
.	.	4c\	.	.	.
.	.	4d\	.	.	.
.	.	4e\	.	.	.
=96-	=96-	=96-	=96-	=96-	=96-
.	.	2f\	.	.	.
2AA/	.	2c\	.	.	.
!LO:TX:t=P:problem=♭ above	!	!	!	!	!
0BB-X	.	2.d\	.	.	.
.	.	.	.	.	.
.	.	4c\	.	.	.
=97-	=97-	=97-	=97-	=97-	=97-
.	.	1B-X\	gens.	.	.
!LO:TX:a:t=P:problem=brak kreski końcowej	!	!LO:TX:t=P:problem=kreska pseudotaktowa	!	!	!
1FFl;;	.	1Al;;	.	1F;;	.
==	==	==	==	==	==
*-	*-	*-	*-	*-	*-
!!!system-decoration: [s1,s2,s3]
!!!RDF**kern: < = below
!!!RDF**kern: l = terminal long
!!!ENC: Marta Lawrence
!!!END: 2021-03-22
!!!ENC: Katarzyna Serwa
!!!END: 2021-03-11
!!!YEC: Copyright 2022 Narodowy Instytut Fryderyka Chopina (https://polishscores.org)
!!!YEM: License CC-BY-4.0 (https://creativecommons.org/licenses/by/4.0)
